polaris-icons/icons/new-icons/MarkFulfilledMinor.svg

<svg width="20" height="20" viewBox="0 0 20 20" fill="none" xmlns="http://www.w3.org/2000/svg">
<path d="M13.2803 4.78033C13.5732 4.48744 13.5732 4.01256 13.2803 3.71967C12.9874 3.42678 12.5126 3.42678 12.2197 3.71967L9.25 6.68934L8.03033 5.46967C7.73744 5.17678 7.26256 5.17678 6.96967 5.46967C6.67678 5.76256 6.67678 6.23744 6.96967 6.53033L8.71967 8.28033C9.01256 8.57322 9.48744 8.57322 9.78033 8.28033L13.2803 4.78033Z" fill="#4A4A4A"/>
<path fill-rule="evenodd" clip-rule="evenodd" d="M4.85991 6.8832C5.26965 6.9439 5.55261 7.32527 5.4919 7.73501L5.15635 10H7.63962C8.17766 10 8.65533 10.3443 8.82547 10.8547L8.98359 11.3291C9.01762 11.4311 9.11315 11.5 9.22076 11.5H10.7792C10.8868 11.5 10.9824 11.4311 11.0164 11.3291L11.1745 10.8547C11.3447 10.3443 11.8223 10 12.3604 10H14.8437L14.5081 7.73501C14.4474 7.32527 14.7303 6.9439 15.1401 6.8832C15.5498 6.8225 15.9312 7.10545 15.9919 7.51519L16.4055 10.3072C16.4684 10.7317 16.5 11.1603 16.5 11.5895V13.2501C16.5 15.045 15.0449 16.5001 13.25 16.5001H6.75C4.95507 16.5001 3.5 15.045 3.5 13.2501V11.5895C3.5 11.1603 3.53158 10.7317 3.59447 10.3072L4.0081 7.51519C4.0688 7.10545 4.45017 6.8225 4.85991 6.8832ZM5 11.5895C5 11.5596 5.00018 11.5298 5.00055 11.5H7.45943L7.56056 11.8034C7.79876 12.518 8.46751 13 9.22076 13H10.7792C11.5325 13 12.2012 12.518 12.4394 11.8034L12.5406 11.5H14.9994C14.9998 11.5298 15 11.5596 15 11.5895V13.2501C15 14.2166 14.2165 15.0001 13.25 15.0001H6.75C5.7835 15.0001 5 14.2166 5 13.2501V11.5895Z" fill="#4A4A4A"/>
</svg>

<svg viewBox="0 0 20 20" xmlns="http://www.w3.org/2000/svg"><path d="M13.28 4.78a.75.75 0 0 0-1.06-1.06l-2.97 2.97-1.22-1.22a.75.75 0 0 0-1.06 1.06l1.75 1.75a.75.75 0 0 0 1.06 0l3.5-3.5Z" fill="#5C5F62"/><path fill-rule="evenodd" d="M4.86 6.883a.75.75 0 0 1 .632.852l-.336 2.265h2.484a1.25 1.25 0 0 1 1.185.855l.159.474a.25.25 0 0 0 .237.171h1.558a.25.25 0 0 0 .237-.17l.159-.475a1.25 1.25 0 0 1 1.185-.855h2.484l-.336-2.265a.75.75 0 1 1 1.484-.22l.413 2.792c.063.425.095.853.095 1.282v1.661a3.25 3.25 0 0 1-3.25 3.25h-6.5a3.25 3.25 0 0 1-3.25-3.25v-1.66c0-.43.032-.858.094-1.283l.414-2.792a.75.75 0 0 1 .852-.632Zm.14 4.706v-.089h2.46l.1.303a1.75 1.75 0 0 0 1.66 1.197h1.56a1.75 1.75 0 0 0 1.66-1.197l.1-.303h2.46v1.75a1.75 1.75 0 0 1-1.75 1.75h-6.5a1.75 1.75 0 0 1-1.75-1.75v-1.66Z" fill="#5C5F62"/></svg>
